static/logos/googleAnalytics-glyph-color.svg

<svg width="50" height="58" viewBox="0 0 50 58" fill="none" xmlns="http://www.w3.org/2000/svg">
<g clip-path="url(#clip0_1_2594)">
<path d="M35.9609 6.86598V50.0235C35.9609 54.8564 39.2917 57.5436 42.8269 57.5436C46.0966 57.5436 49.6928 55.2549 49.6928 50.0235V7.19292C49.6928 2.76887 46.4235 0 42.8269 0C39.2303 0 35.9609 3.05495 35.9609 6.86598Z" fill="#F8AB00"/>
<path d="M17.9844 28.7718V50.0235C17.9844 54.8565 21.3152 57.5436 24.8504 57.5436C28.1199 57.5436 31.7164 55.255 31.7164 50.0235V29.0987C31.7164 24.6747 28.4468 21.9058 24.8504 21.9058C21.2539 21.9058 17.9844 24.9608 17.9844 28.7718Z" fill="#E37300"/>
<path d="M13.732 50.6777C13.732 54.4682 10.6566 57.5436 6.86598 57.5436C3.07539 57.5436 0 54.4682 0 50.6777C0 46.8871 3.07539 43.8118 6.86598 43.8118C10.6566 43.8118 13.732 46.8871 13.732 50.6777Z" fill="#E37300"/>
</g>
<defs>
<clipPath id="clip0_1_2594">
<rect width="50" height="57.5758" fill="white"/>
</clipPath>
</defs>
</svg>

<svg xmlns="http://www.w3.org/2000/svg" width="55.172" height="64" fill="none" viewBox="0 0 50 58"><g clip-path="url(#a)"><path fill="#F8AB00" d="M35.96 6.866v43.157c0 4.833 3.332 7.52 6.867 7.52 3.27 0 6.866-2.288 6.866-7.52V7.194c0-4.424-3.27-7.193-6.866-7.193-3.597 0-6.866 3.055-6.866 6.866Z"/><path fill="#E37300" d="M17.984 28.772v21.252c0 4.832 3.331 7.52 6.866 7.52 3.27 0 6.866-2.289 6.866-7.52V29.098c0-4.424-3.27-7.193-6.866-7.193-3.596 0-6.866 3.055-6.866 6.866ZM13.732 50.678a6.868 6.868 0 0 1-6.866 6.866A6.868 6.868 0 0 1 0 50.678a6.868 6.868 0 0 1 6.866-6.866 6.868 6.868 0 0 1 6.866 6.866Z"/></g><defs><clipPath id="a"><path fill="#fff" d="M0 0h50v57.576H0z"/></clipPath></defs></svg>
